X:1
T:Burleigh, 77.77 D
T:Burleigh, 77.77 D
T:Samuel Weekes, 1907
T:Public Domain Courtesy of the Cyber Hymnal™
C:Samuel Weekes, 1907
Z:Public Domain
Z:Courtesy of the Cyber Hymnal™
%%score ( 1 2 ) ( 3 4 )
L:1/8
Q:1/4=110
M:4/4
K:Eb
V:1 treble 
V:2 treble 
V:3 bass 
V:4 bass 
V:1
 [EG]2 [B,E]2 [B,E]2 [B,D]2 | [B,E]2 [EG]2 B4 | [Ec]2 [DB]2 [Ee]2 [EB]2 | [DA]2 [_DG]2 (B2 A2) | %4
 [EG]2 [B,E]2 [B,E]2 [B,D]2 | [B,E]2 [EG]2 B4 | [=Ec]2 [CB]2 [CA]2 [CF]2 | [B,E]2 [B,D]2 [B,E]4 | %8
 [B,F]2 [DF]2 [EA]2 [EG]2 | [EA]2 [DF]2 (c2 B2) | [Ac]2 [Ae]2 [Ed]2 [Ec]2 | %11
 [EB]2 [EG]2 ([EG]2 [DF]2) | [EG]2 [_DG]2 [=DB]2 [DA]2 | [DG]2 [DF]2 (c2 B2) | %14
 E2 [_DE]2 [CE]2 [_CF]2 | [B,E]2 [B,D]2 [B,E]4 |] %16
V:2
 x8 | x4 (D2 E2) | x8 | x4 =D4 | x8 | x4 (F2 E2) | x8 | x8 | x8 | x4 E4 | x8 | x8 | x8 | x4 E4 | %14
 E2 x6 | x8 |] %16
V:3
 [E,B,]2 [G,B,]2 [F,A,]2 [F,A,]2 | [E,G,]2 [E,B,]2 ([F,A,]2 [G,B,]2) | %2
 A,2 [A,B,]2 [A,B,]2 [A,B,]2 | [F,B,]2 [=E,B,]2 B,4 | [E,B,]2 [G,B,]2 [F,A,]2 [F,A,]2 | %5
 [E,G,]2 [D,B,]2 (B,2 G,2) | [C,G,]2 [=E,G,]2 F,2 [A,,F,]2 | [B,,G,]2 [B,,A,]2 [E,G,]4 | %8
 [D,B,]2 [D,B,]2 [E,B,]2 [B,,B,]2 | [F,B,]2 [A,B,]2 [G,B,]4 | [A,E]2 [CE]2 [B,E]2 A,2 | %11
 [G,B,]2 [=A,C]2 B,4 | [E,B,]2 [=E,B,]2 [F,B,]2 [B,,B,]2 | [F,B,]2 [A,B,]2 [G,B,]4 | %14
 [G,,B,]2 [G,,B,]2 [A,,A,]2 [A,,A,]2 | [B,,G,]2 [B,,F,]2 [E,G,]4 |] %16
V:4
 x8 | x8 | A,2 x6 | x4 (F,2 B,,2) | x8 | x4 _D,4 | x4 F,2 x2 | x8 | x8 | x8 | x6 A,2 | x4 B,4 | %12
 x8 | x8 | x8 | x8 |] %16

